X:75
T:The Silver Spear                                                                                  
M:C                                                                                                 
L:1/8                                                                                               
K:AMix                                                                                              
FA (3AFA BAFA|dfed BcdA|FA (3AFA BAFA|dfed B2 AG|                                                   
FA (3AFA BAFA| dfed (3Bcd ef|g2 ge f2 fe|dfed B2 AG :|                                              
|: faaf a2 af|gfed Bcde| faaf a2 af|gfed B2 A2|                                                     
faaf a2 af|gfed (3Bcd ef|g2 ge f2 fe|dfed B2 AG :|
